X:364
T:Rank Stranger
C:Curley Lambert
N: Transcribed by James Watts
R:bluegrass
L:1/8
Q:1/4=155
M:3/4
K:F
z4 FF | GA cc d2 | "F"[f/c/][f/c/][f/c/][f/c/] [f/c/][f/c/][f/c/][f/c/] [f/c/][f/c/][f/c/][f/c/] | 
[f/c/][f/c/][f/c/][f/c/] [f/c/][f/c/][f/c/][f/c/] [f/c/][f/c/][f/c/][f/c/] | [f2c2] [fc]c dc | 
"C"[c/G/][c/A/][c/A/][c/A/] [c/A/][c/A/][cA] [cA][cG] | "F"[A4F4] FF | "Bb"[F/C/][F/D/][F/D/][F/D/] [F/D/][F/D/][F/D/][F/D/] [F/D/][F/D/][F/D/][F/D/] | 
"F"[F6C6] | z6 | z6 | z6 | z6 | z6 | z6 | z6 | z6 | z6 | z6 | z6 | z6 | z6 | z6 | 
z6 | z6 | z6 | z6 | z6 | z6 | z6 | 


